X: 192137
T: Spinney (The)
C: Joe Liddy
Z: BB
S: "The Leitrim Fiddler" (Dublin 1981)
L: 1/8
M: 4/4
R: reel
Q: 1/4 = 180
K: Ador
dB | A2 GA EABA | eABA gedB | A2 GA eABA | GEDB, DEGB |
A2 eA BAeA | BAGF GABd | eged BAGE | GBdB A2 :|
Bd | ea a2 agab | gaba bedB | A2 BA eABd | g2 fg edBd |
ea a2 agab | eged BAGB | A2 eA BAGE | DEGB A2 Bd ||
ea a2 agab | gafg edBd | eABA gefd | edBA GFGB |
A2 eA BAeA | gedc BAG[EB] | A2 Bd gaba | gedB A2 ||
%%%%%%%%%%%%%%%%%%%%%%
